X: 5182
T: Brisk Young Lads, The
R: jig
M: 6/8
K: Adorian
|:E|AGA c2 d|edc Bcd|~G3 B2c|dge dBG|
AGA c2d|edc Bcd|ecA ABG|A3 A2:|
|:e|aga b2 a|age edB|GAB d2 B|dge dBG|
[1 aga b2 a|age edB|A3 ABG|A3 A2:|
[2 AGA c2 d|edc Bcd|ecA ABG|A3 A2||

